src/24/tablet-24.svg

<?xml version="1.0" encoding="iso-8859-1"?>
<!-- Generator: Adobe Illustrator 19.1.0, SVG Export Plug-In . SVG Version: 6.00 Build 0)  -->
<!DOCTYPE svg PUBLIC "-//W3C//DTD SVG 1.1 Tiny//EN" "http://www.w3.org/Graphics/SVG/1.1/DTD/svg11-tiny.dtd">
<svg version="1.1" baseProfile="tiny" id="Layer_1" xmlns="http://www.w3.org/2000/svg" xmlns:xlink="http://www.w3.org/1999/xlink"
	 x="0px" y="0px" viewBox="0 0 24 24" xml:space="preserve">
<path d="M18.5,24h-13C4.122,24,3,22.879,3,21.5v-19C3,1.121,4.122,0,5.5,0h13C19.879,0,21,1.121,21,2.5v19
	C21,22.879,19.879,24,18.5,24z M5.5,1C4.673,1,4,1.673,4,2.5v19C4,22.327,4.673,23,5.5,23h13c0.827,0,1.5-0.673,1.5-1.5v-19
	C20,1.673,19.327,1,18.5,1H5.5z"/>
<path d="M18.5,20h-13C5.224,20,5,19.776,5,19.5v-16C5,3.224,5.224,3,5.5,3h13C18.776,3,19,3.224,19,3.5v16
	C19,19.776,18.776,20,18.5,20z M6,19h12V4H6V19z"/>
<g>
	<g>
		<path d="M12,1.5c-0.276,0-0.5,0.224-0.5,0.5s0.224,0.5,0.5,0.5s0.5-0.224,0.5-0.5S12.276,1.5,12,1.5L12,1.5z"/>
	</g>
</g>
<path d="M9.5,8h-1C8.224,8,8,7.776,8,7.5v-1C8,6.224,8.224,6,8.5,6h1C9.776,6,10,6.224,10,6.5v1C10,7.776,9.776,8,9.5,8z"/>
<path d="M12.5,8h-1C11.224,8,11,7.776,11,7.5v-1C11,6.224,11.224,6,11.5,6h1C12.776,6,13,6.224,13,6.5v1C13,7.776,12.776,8,12.5,8z"
	/>
<path d="M15.5,8h-1C14.224,8,14,7.776,14,7.5v-1C14,6.224,14.224,6,14.5,6h1C15.776,6,16,6.224,16,6.5v1C16,7.776,15.776,8,15.5,8z"
	/>
<path d="M9.5,11h-1C8.224,11,8,10.776,8,10.5v-1C8,9.224,8.224,9,8.5,9h1C9.776,9,10,9.224,10,9.5v1C10,10.776,9.776,11,9.5,11z"/>
<path d="M12.5,11h-1c-0.276,0-0.5-0.224-0.5-0.5v-1C11,9.224,11.224,9,11.5,9h1C12.776,9,13,9.224,13,9.5v1
	C13,10.776,12.776,11,12.5,11z"/>
<path d="M15.5,11h-1c-0.276,0-0.5-0.224-0.5-0.5v-1C14,9.224,14.224,9,14.5,9h1C15.776,9,16,9.224,16,9.5v1
	C16,10.776,15.776,11,15.5,11z"/>
<path d="M9.5,14h-1C8.224,14,8,13.776,8,13.5v-1C8,12.224,8.224,12,8.5,12h1c0.276,0,0.5,0.224,0.5,0.5v1C10,13.776,9.776,14,9.5,14
	z"/>
<path d="M12.5,14h-1c-0.276,0-0.5-0.224-0.5-0.5v-1c0-0.276,0.224-0.5,0.5-0.5h1c0.276,0,0.5,0.224,0.5,0.5v1
	C13,13.776,12.776,14,12.5,14z"/>
<circle cx="12" cy="21.5" r="1"/>
</svg>

<svg baseProfile="tiny" xmlns="http://www.w3.org/2000/svg" viewBox="0 0 24 24"><path d="M18.5 24h-13A2.503 2.503 0 0 1 3 21.5v-19C3 1.121 4.122 0 5.5 0h13C19.879 0 21 1.121 21 2.5v19c0 1.379-1.121 2.5-2.5 2.5zM5.5 1C4.673 1 4 1.673 4 2.5v19c0 .827.673 1.5 1.5 1.5h13c.827 0 1.5-.673 1.5-1.5v-19c0-.827-.673-1.5-1.5-1.5h-13z"/><path d="M18.5 20h-13a.5.5 0 0 1-.5-.5v-16a.5.5 0 0 1 .5-.5h13a.5.5 0 0 1 .5.5v16a.5.5 0 0 1-.5.5zM6 19h12V4H6v15zM12 1.5a.5.5 0 1 0 0 1 .5.5 0 0 0 0-1z"/><path d="M9.5 8h-1a.5.5 0 0 1-.5-.5v-1a.5.5 0 0 1 .5-.5h1a.5.5 0 0 1 .5.5v1a.5.5 0 0 1-.5.5zM12.5 8h-1a.5.5 0 0 1-.5-.5v-1a.5.5 0 0 1 .5-.5h1a.5.5 0 0 1 .5.5v1a.5.5 0 0 1-.5.5zM15.5 8h-1a.5.5 0 0 1-.5-.5v-1a.5.5 0 0 1 .5-.5h1a.5.5 0 0 1 .5.5v1a.5.5 0 0 1-.5.5zM9.5 11h-1a.5.5 0 0 1-.5-.5v-1a.5.5 0 0 1 .5-.5h1a.5.5 0 0 1 .5.5v1a.5.5 0 0 1-.5.5zM12.5 11h-1a.5.5 0 0 1-.5-.5v-1a.5.5 0 0 1 .5-.5h1a.5.5 0 0 1 .5.5v1a.5.5 0 0 1-.5.5zM15.5 11h-1a.5.5 0 0 1-.5-.5v-1a.5.5 0 0 1 .5-.5h1a.5.5 0 0 1 .5.5v1a.5.5 0 0 1-.5.5zM9.5 14h-1a.5.5 0 0 1-.5-.5v-1a.5.5 0 0 1 .5-.5h1a.5.5 0 0 1 .5.5v1a.5.5 0 0 1-.5.5zM12.5 14h-1a.5.5 0 0 1-.5-.5v-1a.5.5 0 0 1 .5-.5h1a.5.5 0 0 1 .5.5v1a.5.5 0 0 1-.5.5z"/><circle cx="12" cy="21.5" r="1"/></svg>
